X: 241
M: 6/8
L: 1/8
K: G
V: 1
|: [g3B3] [f3A3] | g2b {^c}d2e/f/ | gfe dcB | ABG FED |\
[g2B2][gB] [f2A2][fA] | g2b {^c}def | gfe agf | ed^c d2 :|
|: d |\
d2b dcB | c2a cBA | Bdg agf | g3 G2 :|
g |\
gfg efg | abg fed | efg dcB | ABG FED |\
gfg efg | abg fed | efg agf | g3 G2g |
gfg efg | abg fed | efg dcB | ABG FED |\
EFG FGA | GAB ABc | d2b agf | Hgdc BcA |]
V: 2 clef=bass middle=d
|: gbg d'2c' | bag fed | g3 G3 | c2^c d2z |\
|: z |\
g3 ^g3 | a3 f3 | g2B c2d | GBd g2 :|
z |\
c2z A2z | B2z F2z | G3 c2d | HG2z z2z |]


